X:246 
T:Landlady, The 
C:Turlough O'Carolan (1670-1738)
C:O'Carolan
B:CWTO.196
F:file ID carolan/246llady
Z:Gilb/Brennan/Black
Q:80
M:2/4
L:1/16
K:D
"vivace ma non troppo"
f>e|d2d2 B2AB|d4 d2de|f2fg a2fd|f2e2 e2fe|
"5"d2d2 B2AB|d4 d2ef|a2e2 f2ed|B2A2 A2||
ag|"9"f3e defg|a3g f2e2|f2e2 d2ef|f2e2 e2fe|
"13"d2B2 ABde|f4 e2fg|a2e2 fedB|B2 A2 A4|]

